!!!COM: Gaspar van Weerbeke
!!!CDT: ~1450-~1517
!!!OPR: Missa O venus bant
!!!OTL: Credo
!!!OMV: 3
!!!AGN: Mass
!!!SCT: Gas0102c
!!!SCA: Gas0102c
!!!voices: 4
**kern	**text	**kern	**text	**kern	**text	**kern	**text
*part4	*part4	*part3	*part3	*part2	*part2	*part1	*part1
*staff4	*staff4	*staff3	*staff3	*staff2	*staff2	*staff1	*staff1
*I"Bassus	*	*I"Tenor	*	*I"Altus	*	*I"Superius	*
*I'B	*	*I'T	*	*I'A	*	*I'S	*
*clefF4	*	*clefGv2	*	*clefGv2	*	*clefG2	*
*k[]	*	*k[]	*	*k[]	*	*k[]	*
*M3/2	*	*M3/2	*	*M3/2	*	*M3/2	*
*met(O)	*	*met(O)	*	*met(O)	*	*met(O)	*
=1	=1	=1	=1	=1	=1	=1	=1
1.r	.	1.r	.	1G	Pa-	1g	Pa-
.	.	.	.	2A	-trem	2f	-trem
=2	=2	=2	=2	=2	=2	=2	=2
1.r	.	1.r	.	4.G	om-	4e	om-
.	.	.	.	.	.	2d	-ni-
.	.	.	.	8A	.	.	.
.	.	.	.	4B	-ni-	.	.
.	.	.	.	4c	-po-	2g	-po-
.	.	.	.	2A	-ten-	.	.
.	.	.	.	.	.	4f#i	-ten-
=3	=3	=3	=3	=3	=3	=3	=3
1.r	.	1.r	.	4.G	-tem,	2g	-tem,
.	.	.	.	8A	fa-	.	.
.	.	.	.	4B	-cto-	4r	.
.	.	.	.	4B	-rem	4g	fa-
.	.	.	.	4.c	ce-	4a	-cto-
.	.	.	.	.	.	4a	-rem
.	.	.	.	8B	.	.	.
=4	=4	=4	=4	=4	=4	=4	=4
1.r	.	1.r	.	2G	-li	4b	ce-
.	.	.	.	.	.	4b	-li
.	.	.	.	4r	.	4.cc	et
.	.	.	.	4A	et	.	.
.	.	.	.	.	.	16bLL	ter-
.	.	.	.	.	.	16aJJ	.
.	.	.	.	4B	ter-	2g	-re,
.	.	.	.	[4c	-re,	.	.
!!LO:LB:g=original
=5	=5	=5	=5	=5	=5	=5	=5
1.r	.	1.r	.	4c]	.	4a	vi-
.	.	.	.	2d	vi-	4f	-si-
.	.	.	.	.	.	4e	-bi-
.	.	.	.	4c	-si-	4e	-li-
.	.	.	.	4B	-bi-	4d	-um
*	*	*	*	*lig	*	*	*
.	.	.	.	[4G	-lium	[4dd	om-
=6	=6	=6	=6	=6	=6	=6	=6
1.r	.	1.r	.	4G]	.	4dd]	.
.	.	.	.	2g	om-	4b	-ni-
*	*	*	*	*Xlig	*	*	*
.	.	.	.	.	.	2a	-um,
.	.	.	.	4f	-ni-	.	.
.	.	.	.	4e	-um,	2g	et
.	.	.	.	[4c	et	.	.
=7	=7	=7	=7	=7	=7	=7	=7
1.r	.	1.r	.	4c]	.	4a	in-
.	.	.	.	4e	in-	2cc	-vi-
.	.	.	.	2d	-vi-	.	.
.	.	.	.	.	.	4b	-si-
.	.	.	.	4c	-si-	4a	-bi-
.	.	.	.	[4d	-bi-	4a	-li-
=8	=8	=8	=8	=8	=8	=8	=8
1.r	.	1.r	.	8d]	.	4f	-um.
.	.	.	.	8c	-lium.	.	.
*	*	*	*	*	*edit	*	*
.	.	.	.	4B	Et	4g	Et
.	.	.	.	4A	in	4a	in
.	.	.	.	4d	u-	4f	u-
.	.	.	.	4c	-num	4e	-num
.	.	.	.	[4f	Do-	[4a	Do-
!!LO:LB:g=original
=9	=9	=9	=9	=9	=9	=9	=9
1.r	.	1.r	.	4f]	.	8a]L	.
.	.	.	.	.	.	8gJ	.
.	.	.	.	4e	-mi-	4g	-mi-
.	.	.	.	4d	-num	4f	-num
*	*	*	*	*col	*	*	*
.	.	.	.	4.g	Je-	4.b	Je-
.	.	.	.	8f	-sum	8a	-sum
*	*	*	*	*Xcol	*	*	*
.	.	.	.	4e	Chri-	[4cc	Christum,
=10	=10	=10	=10	=10	=10	=10	=10
1.r	.	1.r	.	4c	-stum,	4cc]	.
.	.	.	.	2d	Fi-	2a	Fi-
.	.	.	.	8c	-li-	2g	-lium
.	.	.	.	8B	-um	.	.
.	.	.	.	2A	De-	.	.
.	.	.	.	.	.	4f	De-
=11	=11	=11	=11	=11	=11	=11	=11
1.r	.	1.r	.	2G	-i	4.g	-i
.	.	.	.	.	.	8e	u-
.	.	.	.	4A	uni-	4f	-ni-
.	.	.	.	2c	-ge-	4e	-ge-
.	.	.	.	.	.	2d	-ni-
.	.	.	.	4B	-ni-	.	.
!!LO:PB:g=original
=12	=12	=12	=12	=12	=12	=12	=12
*	*	*lig	*	*	*	*	*
1C	Et	[1.G	Et	2c	-tum.	2e	-tum.
*	*	*	*	*	*Xedit	*	*
.	.	.	.	2c	Et	2r	.
.	.	.	.	.	.	.	.
4.GG	ex	.	.	4.B	ex	[2g	Et
.	.	.	.	.	.	.	.
8AA	.	.	.	8c	.	.	.
=13	=13	=13	=13	=13	=13	=13	=13
4BB	Pa-	2G]	.	4d	Pa-	2g]	.
2C	.	.	.	4e	.	.	.
.	.	1A	ex	4c	.	4e	ex
*	*	*Xlig	*	*	*	*	*
2D	-tre	.	.	4.A	.	2f	Pa-
.	.	.	.	8B	.	.	.
[4C	na-	.	.	[4c	-tre	4e	-tre
=14	=14	=14	=14	=14	=14	=14	=14
4C]	.	4G	Pa-	4c]	.	2g	na-
4BB	.	2G	-tre	4G	.	.	.
*	*	*	*	*lig	*	*	*
2AA	.	.	.	2C	na-	4a	.
.	.	4F	.	.	.	4cc	.
2GG	-tum	2G	.	2D	.	4b	.
*	*	*	*	*Xlig	*	*	*
.	.	.	.	.	.	8aL	.
.	.	.	.	.	.	8gJ	.
=15	=15	=15	=15	=15	=15	=15	=15
4D	an-	1.A	na-	2r	.	4f	.
4.F	-te	.	.	.	.	4.a	.
.	.	.	.	1d	-tum	.	.
8EL	.	.	.	.	.	8gL	.
8D	.	.	.	.	.	8f#j	.
8CJ	.	.	.	.	.	8eJ	.
2D	om-	.	.	.	.	2f#j	.
=16	=16	=16	=16	=16	=16	=16	=16
2.E	-ni-	[1.G	-tum	4r	.	2g	-tum
.	.	.	.	4g	an-	.	.
.	.	.	.	4g	-te	2r	.
4C	-a	.	.	4g	om-	.	.
2C	se-	.	.	4e	-ni-	4r	.
.	.	.	.	4e	-a	4g	an-
!!LO:LB:g=original
=17	=17	=17	=17	=17	=17	=17	=17
2GG	-cu-	1.G]	.	4d	se-	4g	-te
.	.	.	.	4d	-cu-	4g	om-
2C	-la.	.	.	2c	-la.	4e	-ni-
.	.	.	.	.	.	4e	-a
4r	.	.	.	2g	De-	4d	se-
4GG	De-	.	.	.	.	4d	-cu-
=18	=18	=18	=18	=18	=18	=18	=18
2C	-um	2r	.	2g	-um	2c	-la.
*	*	*col	*	*	*	*	*
4.C	de	[1c	an-	4e	de	2r	.
.	.	.	.	4c	De-	.	.
8D	.	.	.	.	.	.	.
2E	De-	.	.	2G	-o,	[2g	De-
=19	=19	=19	=19	=19	=19	=19	=19
2C	-o,	1c]	.	4r	.	4g]	.
.	.	.	.	4c	lu-	4g	-um
2F	lu-	.	.	4.A	.	2a	de
.	.	.	.	8B	.	.	.
4E	.	2c	-te	4.c	.	2g	De-
*	*	*Xcol	*	*	*	*	*
4C	.	.	.	.	.	.	.
.	.	.	.	8d	.	.	.
=20	=20	=20	=20	=20	=20	=20	=20
2C	-men	1.c	om-	2e	-men	2cc	-o,
2F	.	.	.	2f	de	4.cc	lu-
.	.	.	.	.	.	8b	.
4r	.	.	.	2r	.	4a	-men
4E	de	.	.	.	.	4g	de
!!LO:LB:g=original
=21	=21	=21	=21	=21	=21	=21	=21
*col	*	*lig	*	*	*	*	*
4.F	lu-	1.A	-ni-	4.f	lu-	2.cc	lu-
8G	.	.	.	8e	.	.	.
*Xcol	*	*	*	*lig	*	*	*
4A	.	.	.	2c	-mi-	.	.
*col	*	*	*	*	*	*	*
4.F	-mi-	.	.	.	.	4.a	-mi-
.	.	.	.	2F	.	.	.
*	*	*	*	*Xlig	*	*	*
8E	.	.	.	.	.	8g	.
*Xcol	*	*	*	*	*	*	*
4D	-ne,	.	.	.	.	4f	-ne,
=22	=22	=22	=22	=22	=22	=22	=22
4.C	De-	1.c	-a.	2G	-ne,	4.e	De-
*	*	*Xlig	*	*	*	*	*
8D	.	.	.	.	.	8f	.
4E	-um	.	.	4r	.	4g	-um
*col	*	*	*	*	*	*	*
4.F	ve-	.	.	2A	De-	2a	ve-
8G	.	.	.	.	.	.	.
*Xcol	*	*	*	*	*	*	*
4A	-rum	.	.	4c	-um	4f	-rum
=23	=23	=23	=23	=23	=23	=23	=23
4G	de	1.r	.	4d	ve-	4g	de
4F	De-	.	.	4f	-rum	4a	De-
2G	-o	.	.	4d	de	4b	.
.	.	.	.	4g	De-	4g	-o
2A	ve-	.	.	4e	.	2cc	ve-
.	.	.	.	4f	-o	.	.
=24	=24	=24	=24	=24	=24	=24	=24
2.G	-ro.	2r	.	2.g	ve-	2b	-ro.
*	*	*	*edit	*	*	*	*
.	.	2.G	Ge-	.	.	4b	Ge-
2E	Ge-	.	.	4g	-ro.	4b	-ni-
.	.	.	.	2g	Ge-	2b	-tum,
4G	-ni-	4G	-ni-	.	.	.	.
!!LO:LB:g=original
=25	=25	=25	=25	=25	=25	=25	=25
2D	-tum,	1d	-tum,	2f	-ni-	4a	non
.	.	.	.	.	.	4.a	fa-
2D	non	.	.	2f	-tum,	.	.
.	.	.	.	.	.	8gL	.
.	.	.	.	.	.	8f	.
.	.	.	.	.	.	8eJ	.
*col	*	*	*	*	*	*	*
4.G	fa-	2B	non	4g	non	4d	-ctum,
*	*	*	*	*col	*	*	*
.	.	.	.	[4d	fa-	[4g	con-
8A	.	.	.	.	.	.	.
*Xcol	*	*	*	*	*	*	*
=26	=26	=26	=26	=26	=26	=26	=26
4B	.	2G	fa-	8d]L	.	8g]L	.
.	.	.	.	8cJ	.	8aJ	.
*	*	*	*	*Xcol	*	*	*
4G	.	.	.	4B	.	8bL	-sub-
.	.	.	.	.	.	16aL	.
.	.	.	.	.	.	16bJJ	.
*col	*	*	*	*	*	*	*
4.F	.	1A	-ctum,	4A	.	8ccL	-stan-
.	.	.	.	.	.	8b	.
.	.	.	.	2.d	-ctum,	8a	.
8E	.	.	.	.	.	8gJ	.
*Xcol	*	*	*	*	*	*	*
2D	-ctum,	.	.	.	.	4.f#i	-ti-
.	.	.	.	.	.	8e	.
=27	=27	=27	=27	=27	=27	=27	=27
1GG	con-	1G	con-	2d	con-	2g	-a-
.	.	.	.	4B	-sub-	2d	-lem
.	.	.	.	4G	-stan-	.	.
2BB	-sub-	2d	-sub-	4D	.	4r	.
.	.	.	.	4F	-ti-	4f	Pa-
=28	=28	=28	=28	=28	=28	=28	=28
4C	-stan-	4e	-stan-	4E	-a-	4g	.
4AA	-ti-	4c	-ti-	4F	.	4a	.
4GG	-a-	4B	-a-	4G	.	4b	.
4AA	-lem	4c	-lem	4C	-lem	8g	.
.	.	.	.	.	.	4cc	.
2GG	Pa-	2d	Pa-	2G	Pa-	.	.
.	.	.	.	.	.	8bL	.
.	.	.	.	.	.	8b	.
.	.	.	.	.	.	8aJ	.
!!LO:PB:g=original
=29	=29	=29	=29	=29	=29	=29	=29
2C	-tri:	1c	-tri.	2G	-tri:	2cc	-tri.
4r	.	.	.	4c	per	2r	.
4C	per	.	.	4c	quem	.	.
4C	quem	2r	.	4G	om-	2r	.
4C	om-	.	.	4G	-ni-	.	.
=30	=30	=30	=30	=30	=30	=30	=30
*lig	*	*	*	*col	*	*	*
2GG	-ni-	1.r	.	4.d	-a	1.r	.
.	.	.	.	8c	.	.	.
*	*	*	*	*Xcol	*	*	*
2D	-a	.	.	4B	.	.	.
*Xlig	*	*	*	*	*	*	*
.	.	.	.	8A	.	.	.
.	.	.	.	4A	.	.	.
4C	.	.	.	.	.	.	.
.	.	.	.	8G	.	.	.
4BB	.	.	.	[4G	fa-	.	.
=31	=31	=31	=31	=31	=31	=31	=31
2AA	fa-	1.r	.	8G]L	.	1.r	.
.	.	.	.	8EJ	.	.	.
.	.	.	.	4F	.	.	.
4.GG	.	.	.	8GL	.	.	.
.	.	.	.	8A	.	.	.
.	.	.	.	8B	.	.	.
8AA	.	.	.	8cJ	.	.	.
4BB	.	.	.	4d	.	.	.
4C	.	.	.	4e	.	.	.
=32	=32	=32	=32	=32	=32	=32	=32
8DL	.	1.r	.	8dL	.	1.r	.
8EJ	.	.	.	8.d	.	.	.
4F	.	.	.	.	.	.	.
.	.	.	.	16cL	.	.	.
.	.	.	.	16B	.	.	.
.	.	.	.	16AJJ	.	.	.
4G	.	.	.	4G	.	.	.
4E	-cta	.	.	2c	.	.	.
2D	sunt.	.	.	.	.	.	.
.	.	.	.	4B	-cta	.	.
!!LO:LB:g=original
=33	=33	=33	=33	=33	=33	=33	=33
*	*	*	*Xedit	*	*	*	*
4.C	Qui	1c	Qui	8cL	sunt.	2.g	Qui-
.	.	.	.	8d	.	.	.
.	.	.	.	8e	.	.	.
8D	.	.	.	8fJ	.	.	.
4E	.	.	.	4g	Qui	.	.
4.F	pro-	.	.	4.f	pro-	4.a	-pro-
.	.	2A	pro-	.	.	.	.
8GL	.	.	.	8e	.	8b	.
8A	.	.	.	4c	-pter	[4cc	-pter
8BJ	.	.	.	.	.	.	.
=34	=34	=34	=34	=34	=34	=34	=34
4c	-pter	1c	-pter	2r	.	8cc]L	.
.	.	.	.	.	.	8bJ	.
4F	nos	.	.	.	.	4a	nos
4E	ho-	.	.	2e	nos	4g	.
4C	-mi-	.	.	.	.	4cc	ho-
4BB	.	4G	nos	8dL	ho-	4.dd	-mi-
.	.	.	.	8cJ	.	.	.
4GG	-nes,	[4d	ho-	8BL	-mi-	.	.
.	.	.	.	8AJ	.	8cc	.
=35	=35	=35	=35	=35	=35	=35	=35
4G	et	4d]	.	4G	-nes,	8b	-nes,
.	.	.	.	.	.	8a	et
4A	pro-	4c	-mi-	4f	et	4cc	pro-
4G	-pter	4d	-nes,	4g	pro-	4b	-pter
8AL	no-	4A	et	8eL	-pter	2a	no-
8FJ	.	.	.	8fJ	.	.	.
4G	.	2B	pro-	4d	no-	.	.
4E	.	.	.	4e	.	4g#i	.
!!LO:LB:g=original
=36	=36	=36	=36	=36	=36	=36	=36
4F	-stram	2A	-pter	4c	-stram	2a	-stram
4D	.	.	.	4d	.	.	.
4C	sa-	4.c	no-	4e	sa-	4r	.
*col	*	*	*	*	*	*	*
4.F	-lu-	.	.	4f	.	4a	sa-
.	.	8B	.	.	.	.	.
.	.	4A	-stram	4c	-lu-	4a	-lu-
8GL	.	.	.	.	.	.	.
*Xcol	*	*	*	*	*	*	*
8A	.	4A	sa-	4A	.	4cc	.
8FJ	.	.	.	.	.	.	.
=37	=37	=37	=37	=37	=37	=37	=37
4G	-tem	2d	-lu-	4G	.	4b	-tem
4D	de-	.	.	2A	-tem	4.a	de-
4F	-scen-	4c	-tem	.	.	.	.
.	.	.	.	.	.	8g	.
4G	.	4B	de-	4r	.	4.g	-scen-
*	*	*	*	*	*edit	*	*
4D	-dit	2A	-scen-	4F	de-	.	.
.	.	.	.	.	.	8aL	.
4C	de	.	.	4E	-scen-	8b	.
.	.	.	.	.	.	8ccJ	.
=38	=38	=38	=38	=38	=38	=38	=38
4BB	.	4G	-dit	4D	-dit	4dd	-dit
*	*	*	*	*	*Xedit	*	*
2AA	ce-	4.c	de	4E	de	8cc	de
.	.	.	.	.	.	8.aL	ce-
.	.	.	.	4e	ce-	.	.
.	.	.	.	.	.	16gL	.
.	.	8B	.	.	.	16f	.
.	.	.	.	.	.	16eJJ	.
4BB	.	4G	ce-	4d	.	2g	.
4C	.	2A	.	4c	.	.	.
4D	.	.	.	4A	.	4f#i	.
=39	=39	=39	=39	=39	=39	=39	=39
*	*	*	*	*lig	*	*	*
[1.GGl	-lis.	[1.Gl	-lis.	1.B	-lis.	[1.gl	-lis.
=40	=40	=40	=40	=40	=40	=40	=40
1.GG]	.	1.G]	.	1.dl	.	1.g]	.
*	*	*	*	*Xlig	*	*	*
!!LO:LB:g=original
=41||	=41||	=41||	=41||	=41||	=41||	=41||	=41||
*M2/2	*	*M2/2	*	*M2/2	*	*M2/2	*
*met(C|)	*	*met(C|)	*	*met(C|)	*	*met(C|)	*
1GG	Et	1r	.	1G	Et	1r	.
=42	=42	=42	=42	=42	=42	=42	=42
2C	in-	1r	.	2G	in-	1r	.
2E	-car-	.	.	2G	-car-	.	.
=43	=43	=43	=43	=43	=43	=43	=43
2D	-na-	1r	.	2A	-na-	1r	.
2D	-tus	.	.	2B	-tus	.	.
=44	=44	=44	=44	=44	=44	=44	=44
*	*	*	*	*col	*	*	*
2.C	est	1r	.	2.c	est	1g	Et
4D	.	.	.	4B	.	.	.
*	*	*	*	*Xcol	*	*	*
=45	=45	=45	=45	=45	=45	=45	=45
4E	de	1r	.	2G	de	2g	in-
4F	.	.	.	.	.	.	.
2G	Spi-	.	.	2E	Spi-	2g	-car-
=46	=46	=46	=46	=46	=46	=46	=46
2D	-ri-	1r	.	2F	-ri-	2a	-na-
2BB	-tu	.	.	2G	-tu	2b	-tus
=47	=47	=47	=47	=47	=47	=47	=47
*	*edit	*	*	*	*	*	*
2AA	San-	1r	.	2.A	San-	2.cc	est
[2C	.	.	.	.	.	.	.
.	.	.	.	4B	.	4b	.
!!LO:PB:g=original
=48	=48	=48	=48	=48	=48	=48	=48
2C]	.	1r	.	1c	.	2g	de
2E	.	.	.	.	.	2e	Spi-
=49	=49	=49	=49	=49	=49	=49	=49
*	*	*	*	*	*edit	*	*
2D	-cto,	1r	.	2d	-cto,	2f	-ri-
4r	.	.	.	2B	San-	2g	-tu
*	*Xedit	*	*	*	*	*	*
4G	San-	.	.	.	.	.	.
=50	=50	=50	=50	=50	=50	=50	=50
4.F	.	1r	.	4.A	.	2.a	San-
8G	.	.	.	8B	.	.	.
4A	.	.	.	4c	.	.	.
4D	.	.	.	4d	.	4b	.
=51	=51	=51	=51	=51	=51	=51	=51
4A	.	1r	.	4c	.	2cc	.
4F	.	.	.	4A	.	.	.
4G	.	.	.	4G	.	4b	.
4D	.	.	.	4F	.	[4a	.
=52	=52	=52	=52	=52	=52	=52	=52
*lig	*	*	*	*lig	*	*	*
2E	.	1r	.	2G	.	4a]	.
.	.	.	.	.	.	2g	.
2D	.	.	.	2A	.	.	.
.	.	.	.	.	.	4f#i	.
=53	=53	=53	=53	=53	=53	=53	=53
*Xlig	*	*	*	*Xlig	*Xedit	*	*
[1GG	-cto	1r	.	2.G	-cto	2g	-cto
.	.	.	.	.	.	2r	.
.	.	.	.	4A	ex	.	.
=54	=54	=54	=54	=54	=54	=54	=54
1GG]	.	1r	.	2B	Ma-	2g	ex
.	.	.	.	2B	-ri-	2g	Ma-
!!LO:LB:g=original
=55	=55	=55	=55	=55	=55	=55	=55
1r	.	1r	.	1c	-a	2e	-ri-
.	.	.	.	.	.	2e	-a
=56	=56	=56	=56	=56	=56	=56	=56
2G	ex	1r	.	1r	.	2d	Vir-
2G	Ma-	.	.	.	.	2d	-gi-
=57	=57	=57	=57	=57	=57	=57	=57
2E	-ri-	1r	.	4.G	Vir-	2c	-ne:
.	.	.	.	8A	.	.	.
2E	-a	.	.	4B	.	2e	et
.	.	.	.	[4c	.	.	.
=58	=58	=58	=58	=58	=58	=58	=58
2D	Vir-	1r	.	4c]	.	2f	ho-
.	.	.	.	8BL	.	.	.
.	.	.	.	8AJ	.	.	.
2D	-gi-	.	.	2B	-gi-	2f	-mo,
=59	=59	=59	=59	=59	=59	=59	=59
*	*	*	*	*	*	*	*edit
4C	-ne:	1r	.	2c	-ne:	4e	et-
2E	et	.	.	.	.	2g	.
.	.	.	.	2e	et	.	.
8DL	.	.	.	.	.	8fL	.
8CJ	.	.	.	.	.	8eJ	.
=60	=60	=60	=60	=60	=60	=60	=60
2BB	ho-	1r	.	2f	ho-	2d	-ho-
2BB	-mo	.	.	2f	-mo	2d	-mo
=61	=61	=61	=61	=61	=61	=61	=61
*	*	*	*	*	*	*lig	*Xedit
4.C	fa-	1r	.	4e	fa-	2c	fa-
.	.	.	.	2g	.	.	.
8D	.	.	.	.	.	.	.
*	*	*	*	*	*	*col	*
4E	.	.	.	.	.	4.g	.
*	*	*	*	*	*	*Xlig	*
4F	.	.	.	8fL	.	.	.
.	.	.	.	8eJ	.	8a	.
*	*	*	*	*	*	*Xcol	*
!!LO:LB:g=original
=62	=62	=62	=62	=62	=62	=62	=62
4G	.	1r	.	4d	.	4b	.
4A	.	.	.	4c	.	2cc	.
2G	-ctus	.	.	2d	-ctus	.	.
.	.	.	.	.	.	4b	-ctus
=63	=63	=63	=63	=63	=63	=63	=63
1C	est.	1r	.	2.c	est.	1cc	est.
.	.	.	.	4A	.	.	.
=64	=64	=64	=64	=64	=64	=64	=64
2.G	Cru-	1r	.	2B	Cru-	1r	.
.	.	.	.	2B	-ci-	.	.
4G	-ci-	.	.	.	.	.	.
=65	=65	=65	=65	=65	=65	=65	=65
2E	-fi-	1r	.	1c	-fi-	2.g	Cru-
2C	-xus	.	.	.	.	.	.
.	.	.	.	.	.	4g	-ci-
=66	=66	=66	=66	=66	=66	=66	=66
2C	e-	1r	.	2.g	-xus	2e	-fi-
2C	-ti-	.	.	.	.	2c	-xus
.	.	.	.	4g	e-	.	.
=67	=67	=67	=67	=67	=67	=67	=67
2C	-am	1r	.	2e	-ti-	2g	e-
2C	pro	.	.	2c	-am	8gL	-ti-
.	.	.	.	.	.	8f	.
.	.	.	.	.	.	8e	.
.	.	.	.	.	.	8dJ	.
=68	=68	=68	=68	=68	=68	=68	=68
*	*	*	*	*	*	*lig	*
2C	no-	1r	.	2g	pro	2c	-am
*	*	*	*	*	*	*col	*
2C	-bis:	.	.	[2e	no-	[2g	.
*	*	*	*	*	*	*Xlig	*
!!LO:LB:g=original
=69	=69	=69	=69	=69	=69	=69	=69
1r	.	1r	.	4e]	.	4g]	.
.	.	.	.	8dL	.	4e	pro
*	*	*	*	*	*	*Xcol	*
.	.	.	.	8cJ	.	.	.
.	.	.	.	8dL	.	8fL	no-
.	.	.	.	8c	.	8e	.
.	.	.	.	8B	.	8d	.
.	.	.	.	8AJ	.	8cJ	.
=70	=70	=70	=70	=70	=70	=70	=70
2r	.	1r	.	4.G	-bis:	4.B	-bis:
.	.	.	.	8A	.	8c	.
2G	sub	.	.	8BL	sub	4d	sub
.	.	.	.	8cJ	.	.	.
.	.	.	.	4d	Pon-	4B	Pon-
=71	=71	=71	=71	=71	=71	=71	=71
4F	Pon-	1r	.	4A	-ti-	4c	-ti-
4D	-ti-	.	.	2B	-o	2d	-o
4G	-o	.	.	.	.	.	.
4A	Pi-	.	.	[4A	Pi-	[4c	Pi-
=72	=72	=72	=72	=72	=72	=72	=72
4F	-la-	1r	.	4A]	.	4c]	.
4G	.	.	.	2G	-la-	4B	.
2D	-to	.	.	.	.	2A	-la
.	.	.	.	4F#i	.	.	.
=73	=73	=73	=73	=73	=73	=73	=73
4r	.	1r	.	2G	-to	2G	to
2G	pas-	.	.	.	.	.	.
.	.	.	.	2r	.	4d	pas-
4G	.	.	.	.	.	4e	.
=74	=74	=74	=74	=74	=74	=74	=74
4F	.	1r	.	1r	.	4d	.
4G	.	.	.	.	.	2g	.
2A	.	.	.	.	.	.	.
.	.	.	.	.	.	4f#i	-sus,
!!LO:LB:g=original
=75	=75	=75	=75	=75	=75	=75	=75
2G	-sus,	1r	.	4d	pas-	2g	.
.	.	.	.	4e	.	.	.
2B	et	.	.	4d	.	2r	.
.	.	.	.	[4g	.	.	.
=76	=76	=76	=76	=76	=76	=76	=76
2A	se-	1r	.	4g]	.	2cc	et
.	.	.	.	4f#i	-sus,	.	.
2G	-pul-	.	.	2g	.	2b	se-
=77	=77	=77	=77	=77	=77	=77	=77
4A	.	1r	.	2c	et	2a	-pul-
4F	.	.	.	.	.	.	.
2G	.	.	.	2B	se-	2g	.
=78	=78	=78	=78	=78	=78	=78	=78
2D	.	1r	.	2A	-pul-	2f	.
4E	.	.	.	4G	.	4g	.
4D	.	.	.	4F	.	[4a	.
=79	=79	=79	=79	=79	=79	=79	=79
2E	.	1r	.	2G	.	4a]	.
.	.	.	.	.	.	2g	.
2D	-tus	.	.	2A	.	.	.
.	.	.	.	.	.	4f#i	-tus
=80	=80	=80	=80	=80	=80	=80	=80
4GG	est.	1r	.	4G	.	2g	est.
*	*edit	*	*	*	*	*	*
4BB	Et	.	.	2G	-tus	.	.
2AA	re-	.	.	.	.	4r	.
.	.	.	.	4F#i	.	4a	Et
=81	=81	=81	=81	=81	=81	=81	=81
4GG	-sur-	1r	.	2G	est.	2b	re-
4BB	.	.	.	.	.	.	.
2AA	.	.	.	4r	.	2cc	-sur-
.	.	.	.	4A	Et	.	.
!!LO:PB:g=original
=82	=82	=82	=82	=82	=82	=82	=82
*	*	*	*	*	*	*col	*
4GG	-re-	1r	.	2B	re-	4.dd	-re-
4G	.	.	.	.	.	.	.
.	.	.	.	.	.	8cc	.
*	*	*	*	*	*	*Xcol	*
2A	.	.	.	2c	-sur-	8aL	.
.	.	.	.	.	.	8b	.
.	.	.	.	.	.	8cc	.
.	.	.	.	.	.	8ddJ	.
=83	=83	=83	=83	=83	=83	=83	=83
2G	-xit	1r	.	4.d	-re-	4b	.
.	.	.	.	.	.	8aL	.
.	.	.	.	8c	.	8gJ	.
4r	.	.	.	8AL	.	4f	.
.	.	.	.	8B	.	.	.
4F	ter-	.	.	8c	.	4a	.
.	.	.	.	8dJ	.	.	.
=84	=84	=84	=84	=84	=84	=84	=84
2G	.	1r	.	4B	-xit	4g	-xit
.	.	.	.	4G	ter-	4b	ter-
4A	-ti-	.	.	4F	.	4cc	-ti-
[4F	-a	.	.	[4c	-ti-	[4a	-a
=85	=85	=85	=85	=85	=85	=85	=85
4F]	.	1r	.	4c]	.	4a]	.
4G	.	.	.	4B	.	2g	di-
2D	di-	.	.	2A	-a	.	.
.	.	.	.	.	.	4f#i	.
=86	=86	=86	=86	=86	=86	=86	=86
4GG	-e,	1r	.	2G	di-	2g	-e,
4.C	se-	.	.	.	.	.	.
.	.	.	.	4A	.	4r	.
8D	.	.	.	.	.	.	.
[4E	-cun-	.	.	[4G	.	[4g	se-
=87	=87	=87	=87	=87	=87	=87	=87
4E]	.	1r	.	4G]	.	4g]	.
8DL	.	.	.	2c	.	8fL	.
8CJ	.	.	.	.	.	8eJ	.
2D	.	.	.	.	.	2f	-cun-
.	.	.	.	4B	.	.	.
=88	=88	=88	=88	=88	=88	=88	=88
1C	-dum	1r	.	2c	-e,	1e	-dum
.	.	.	.	4r	.	.	.
.	.	.	.	[4g	se-	.	.
!!LO:LB:g=original
=89	=89	=89	=89	=89	=89	=89	=89
2r	.	1r	.	4g]	.	1r	.
.	.	.	.	8fL	.	.	.
.	.	.	.	8eJ	.	.	.
*	*Xedit	*	*	*	*	*	*
2BB	Scri-	.	.	2f	-cun-	.	.
=90	=90	=90	=90	=90	=90	=90	=90
2C	-ptu-	1r	.	2e	-dum	2g	Scri-
4F	.	.	.	4f	Scri-	4a	.
4E	.	.	.	4g	.	[4g	.
=91	=91	=91	=91	=91	=91	=91	=91
2C	.	1r	.	4e	.	4g]	.
.	.	.	.	4c	.	2cc	-ptu-
2G	.	.	.	2d	-ptu-	.	.
.	.	.	.	.	.	4b	.
=92	=92	=92	=92	=92	=92	=92	=92
2C	-ras.	1r	.	2c	-ras.	1cc	-ras.
4F	Et	.	.	4r	.	.	.
4A	.	.	.	4c	Et	.	.
=93	=93	=93	=93	=93	=93	=93	=93
2G	a-	1r	.	2d	a-	2r	.
2G	-scen-	.	.	2e	-scen-	4r	.
.	.	.	.	.	.	4g	Et
=94	=94	=94	=94	=94	=94	=94	=94
2F	-dit	1r	.	2f	-dit	2a	a-
4G	in	.	.	4r	.	2b	-scen-
4B	.	.	.	4d	in	.	.
=95	=95	=95	=95	=95	=95	=95	=95
2A	ce-	1r	.	2e	ce-	2cc	-dit
2A	-lum:	.	.	2f	-lum:	4r	.
.	.	.	.	.	.	4a	in
!!LO:LB:g=original
=96	=96	=96	=96	=96	=96	=96	=96
2G	se-	1r	.	2g	se-	2b	ce-
2C	-det	.	.	2e	-det	2cc	-lum:
=97	=97	=97	=97	=97	=97	=97	=97
4BB	ad	1r	.	2d	ad	2dd	se-
4.GG	dex-	.	.	.	.	.	.
.	.	.	.	2g	dex-	2b	-det
8AAL	.	.	.	.	.	.	.
8BB	.	.	.	.	.	.	.
8CJ	.	.	.	.	.	.	.
=98	=98	=98	=98	=98	=98	=98	=98
4D	.	1r	.	4f	.	2a	ad
4F	.	.	.	4d	.	.	.
4E	-te-	.	.	2e	-te-	2g	dex-
4C	.	.	.	.	.	.	.
=99	=99	=99	=99	=99	=99	=99	=99
4D	-ram	1r	.	4d	-ram	4f	.
4BB	Pa-	.	.	2d	Pa-	4d	.
4AA	.	.	.	.	.	2e	-te-
4C	.	.	.	[4c	.	.	.
=100	=100	=100	=100	=100	=100	=100	=100
2GG	.	1r	.	4c]	.	2d	-ram
.	.	.	.	4B	.	.	.
4C	.	.	.	4A	.	4c	.
4BB	.	.	.	[4B	.	[4d	Pa-
=101	=101	=101	=101	=101	=101	=101	=101
2GG	.	1r	.	4B]	.	4d]	.
.	.	.	.	8AL	.	8cL	.
.	.	.	.	8GJ	.	8BJ	.
2D	.	.	.	2F#i	.	2A	.
=102	=102	=102	=102	=102	=102	=102	=102
1GGl	-tris.	1r	.	1Gl	-tris.	1Gl	-tris.
!!LO:LB:g=original
=103||	=103||	=103||	=103||	=103||	=103||	=103||	=103||
*M2/2	*	*M2/2	*	*M2/2	*	*M2/2	*
*met(C|)	*	*met(C)	*	*met(C|)	*	*met(C|)	*
!!LO:TX:a:t=C (T)
!!LO:TX:a:t=C| (S, A, B)
1r	.	1r	.	1r	.	1g	Et
=104	=104	=104	=104	=104	=104	=104	=104
1r	.	1r	.	1r	.	2a	i-
.	.	.	.	.	.	2a	-te-
=105	=105	=105	=105	=105	=105	=105	=105
1r	.	2r	.	1r	.	2g	-rum
.	.	2G	Ven-	.	.	2g	ven-
=106	=106	=106	=106	=106	=106	=106	=106
1r	.	2A	-tu-	1r	.	2f	-tu-
.	.	2A	-rus	.	.	2f	-rus
=107	=107	=107	=107	=107	=107	=107	=107
2r	.	2G	est	1r	.	2g	est
2GG	Cum	2G	cum	.	.	2b	cum
=108	=108	=108	=108	=108	=108	=108	=108
2AA	glo-	2F	glo-	1r	.	2cc	glo-
2AA	-ri-	2F	-ri-	.	.	2a	-ri-
=109	=109	=109	=109	=109	=109	=109	=109
1GG	-a,	1G	-a,	2r	.	2.b	-a,
.	.	.	.	2G	Ju-	.	.
.	.	.	.	.	.	4a	.
!!LO:LB:g=original
=110	=110	=110	=110	=110	=110	=110	=110
4.D	ju-	1r	.	2A	-di-	4.f	ju-
8E	.	.	.	.	.	8g	.
2F	-di-	.	.	2A	-ca-	2a	-di-
=111	=111	=111	=111	=111	=111	=111	=111
4G	.	2r	.	1G	-re	4d	.
2B	-ca-	.	.	.	.	4.g	-ca-
.	.	2G	Vi-	.	.	.	.
.	.	.	.	.	.	8a	.
8AL	.	.	.	.	.	4b	.
8GJ	.	.	.	.	.	.	.
=112	=112	=112	=112	=112	=112	=112	=112
4.F	.	2A	-vos	2r	.	8ccL	.
.	.	.	.	.	.	8b	.
.	.	.	.	.	.	8a	.
8E	.	.	.	.	.	8gJ	.
2D	.	2A	et	2d	vi-	4.f#i	.
.	.	.	.	.	.	8e	.
=113	=113	=113	=113	=113	=113	=113	=113
2GG	-re	1G	mor-	2B	-vos	1g	-re
[2C	vi-	.	.	2G	et	.	.
=114	=114	=114	=114	=114	=114	=114	=114
4C]	.	2G	-tu-	2.c	mor-	2r	.
4C	-vos	.	.	.	.	.	.
2C	et	2G	-os:	.	.	2g	vi-
.	.	.	.	4c	-tu-	.	.
=115	=115	=115	=115	=115	=115	=115	=115
2C	mor-	2r	.	2c	-os:	2.cc	-vos
[2C	-tu-	2G	cu-	2r	.	.	.
.	.	.	.	.	.	4cc	et
=116	=116	=116	=116	=116	=116	=116	=116
2C]	.	2.c	-jus	2.A	cu-	2cc	mor-
[2F	-os:	.	.	.	.	2cc	-tu-
.	.	4c	re-	4A	-jus	.	.
!!LO:PB:g=original
=117	=117	=117	=117	=117	=117	=117	=117
4F]	.	1c	-gni	2A	re-	2cc	-os:
4F	cu-	.	.	.	.	.	.
2F	-jus	.	.	2F	-gni	2cc	cu-
=118	=118	=118	=118	=118	=118	=118	=118
2F	re-	1c	non...	2.A	non	4b	-jus
.	.	.	.	.	.	2a	re-
2F	-gni	.	.	.	.	.	.
.	.	.	.	4B	.	8gL	.
.	.	.	.	.	.	8fJ	.
=119	=119	=119	=119	=119	=119	=119	=119
2.C	non	1r	.	4c	e-	2e	-gni
.	.	.	.	4d	.	.	.
.	.	.	.	4e	-rit	4c	non
[4BB-X	e-	.	.	[4d	fi-	[4f	e-
=120	=120	=120	=120	=120	=120	=120	=120
4BB-]	.	1r	.	4d]	.	4f]	.
4C	-rit	.	.	2c	.	4e	-rit
2G	fi-	.	.	.	.	2d	fi-
.	.	.	.	4B	.	.	.
=121	=121	=121	=121	=121	=121	=121	=121
[1C	-nis.	[1c	Et	4.c	-nis.	2c	-nis.
.	.	.	.	8B	.	.	.
.	.	.	.	2G	.	4r	.
.	.	.	.	.	.	[4g	Et
=122	=122	=122	=122	=122	=122	=122	=122
1C]	.	1c_	.	1r	.	4g]	.
.	.	.	.	.	.	4e	in
.	.	.	.	.	.	4f	Spi-
.	.	.	.	.	.	4g	.
=123	=123	=123	=123	=123	=123	=123	=123
2.C	Et	1c_	.	4r	.	2e	-ri-
.	.	.	.	2g	Et	.	.
.	.	.	.	.	.	4c	.
4C	in	.	.	4e	in	4g	-tum
!!LO:LB:g=original
=124	=124	=124	=124	=124	=124	=124	=124
4F	Spi-	1c]	.	4f	Spi-	4a	.
4E	.	.	.	4g	.	4g	.
2C	-ri-	.	.	2e	-ri-	[2cc	San-
=125	=125	=125	=125	=125	=125	=125	=125
*	*	*lig	*	*	*	*	*
2F	-tum	1A	in	2c	-tum	4cc]	.
.	.	.	.	.	.	4b	.
2r	.	.	.	2f	San-	4.a	-ctum,
.	.	.	.	.	.	8g	.
=126	=126	=126	=126	=126	=126	=126	=126
*	*	*col	*	*	*	*	*
2C	San-	2.c	Spi-	4e	.	4g	Do-
*	*	*Xlig	*	*	*	*	*
.	.	.	.	4c	-ctum,	4e	.
4AA	-ctum,	.	.	2e	Do-	4c	.
[4C	Do-	4B	-ri-	.	.	[4e	.
*	*	*Xcol	*	*	*	*	*
=127	=127	=127	=127	=127	=127	=127	=127
4C]	.	1G	-tum	4c	.	4e]	.
*col	*	*	*	*	*	*	*
4.BB	.	.	.	2d	.	4d	.
.	.	.	.	.	.	4B	.
8GG	.	.	.	.	.	.	.
*Xcol	*	*	*	*	*	*	*
[4BB	-mi-	.	.	[4B	.	[4d	.
=128	=128	=128	=128	=128	=128	=128	=128
4BB]	.	1r	.	4B]	.	4d]	.
4C	.	.	.	8AL	.	8cL	.
.	.	.	.	8GJ	.	8BJ	.
2D	-num,	.	.	2F#i	-mi-	2A	-mi-
=129	=129	=129	=129	=129	=129	=129	=129
2GG	et	[1d	San-	2G	-num,	4G	-num,
.	.	.	.	.	.	4g	et
*col	*	*	*	*	*	*	*
4.D	vi-	.	.	2r	.	4f	vi-
.	.	.	.	.	.	4b-i	.
8E	.	.	.	.	.	.	.
*Xcol	*	*	*	*	*	*	*
!!LO:LB:g=original
=130	=130	=130	=130	=130	=130	=130	=130
4F	-vi-	2d]	.	1r	.	4a	-vi-
2G	-fi-	.	.	.	.	4g	-fi-
.	.	2c	-ctum,	.	.	2a	can-
4F	.	.	.	.	.	.	.
=131	=131	=131	=131	=131	=131	=131	=131
4G	-can-	2B	Do-	2.d	et	2g	-tem:
4.GG	.	.	.	.	.	.	.
.	.	2G	.	.	.	2r	.
8AA	.	.	.	.	.	.	.
4BB	.	.	.	[4g	vi-	.	.
=132	=132	=132	=132	=132	=132	=132	=132
2C	.	1A	-mi-	4g]	.	2cc	qui
.	.	.	.	8f#iL	-vi-	.	.
.	.	.	.	8eJ	-fi-	.	.
2D	.	.	.	2f#i	-can-	2a	ex
=133	=133	=133	=133	=133	=133	=133	=133
1GG	-tem.	1G	-num,	2g	-tem:	4b	Pa-
.	.	.	.	.	.	2dd	.
.	.	.	.	2r	.	.	.
.	.	.	.	.	.	8ccL	.
.	.	.	.	.	.	8bJ	.
=134	=134	=134	=134	=134	=134	=134	=134
1r	.	1r	.	2f	qui	2a	-tre
.	.	.	.	2d	ex	2a	Fi-
=135	=135	=135	=135	=135	=135	=135	=135
1r	.	1r	.	4e	Pa-	4.g	-li-
.	.	.	.	2g	.	.	.
.	.	.	.	.	.	8a	.
.	.	.	.	.	.	4b	.
.	.	.	.	8fL	.	[4cc	-o-
.	.	.	.	8eJ	.	.	.
!!LO:LB:g=original
=136	=136	=136	=136	=136	=136	=136	=136
1r	.	1r	.	2d	-tre	4cc]	.
.	.	.	.	.	.	8bL	.
.	.	.	.	.	.	8aJ	.
.	.	.	.	2d	Fi-	2b	.
=137	=137	=137	=137	=137	=137	=137	=137
1r	.	1r	.	4.c	-li-	4cc	-que
.	.	.	.	.	.	2g	pro-
.	.	.	.	8d	-o-	.	.
.	.	.	.	4e	que	.	.
.	.	.	.	[4f	pro-	[4a	-ce-
=138	=138	=138	=138	=138	=138	=138	=138
1r	.	1r	.	4f]	.	8a]L	.
.	.	.	.	.	.	8g	.
.	.	.	.	4.d	-ce-	8f	.
.	.	.	.	.	.	8eJ	.
.	.	.	.	.	.	4d	.
.	.	.	.	8cL	.	.	.
.	.	.	.	8B	.	[4g	.
.	.	.	.	8AJ	.	.	.
=139	=139	=139	=139	=139	=139	=139	=139
1r	.	1r	.	4G	.	4g]	.
.	.	.	.	2c	-dit.	2e	-dit.
.	.	.	.	[4A	Qui	[4a	Qui
=140	=140	=140	=140	=140	=140	=140	=140
1r	.	1r	.	4A]	.	4a]	.
.	.	.	.	2d	cum	2f	cum
.	.	.	.	[4e	Pa-	[4g	Pa-
=141	=141	=141	=141	=141	=141	=141	=141
*	*edit	*	*	*	*	*	*
2C	Qui	1r	.	4e]	.	4g]	.
.	.	.	.	2c	.	4e	.
2G	cum	.	.	.	.	2d	.
.	.	.	.	4B	.	.	.
!!LO:PB:g=original
=142	=142	=142	=142	=142	=142	=142	=142
4A	Pa-	1r	.	2c	-tre	1c	-tre
*col	*	*	*	*	*	*	*
4.F	.	.	.	.	.	.	.
.	.	.	.	2r	.	.	.
8G	.	.	.	.	.	.	.
*Xcol	*	*	*	*	*	*	*
4A	.	.	.	.	.	.	.
=143	=143	=143	=143	=143	=143	=143	=143
4D	.	1r	.	1r	.	2B	-et
*col	*	*	*	*	*	*	*
4.G	.	.	.	.	.	.	.
.	.	.	.	.	.	2G	Fi-
8A	.	.	.	.	.	.	.
*Xcol	*	*	*	*	*	*	*
4B	.	.	.	.	.	.	.
=144	=144	=144	=144	=144	=144	=144	=144
8cL	.	1r	.	1c	et	1A	-li-
8B	.	.	.	.	.	.	.
8A	.	.	.	.	.	.	.
8GJ	.	.	.	.	.	.	.
4.F	.	.	.	.	.	.	.
8E	.	.	.	.	.	.	.
=145	=145	=145	=145	=145	=145	=145	=145
*	*	*	*	*	*edit	*	*
2G	-tre	1r	.	2B	Fi-	4G	-o
*	*	*	*	*	*	*	*edit
.	.	.	.	.	.	4.g	si-
2G	.	.	.	2G	.	.	.
.	.	.	.	.	.	8a	.
.	.	.	.	.	.	4b	.
=146	=146	=146	=146	=146	=146	=146	=146
2r	.	1r	.	1A	-li-	8ccL	.
.	.	.	.	.	.	8b	.
.	.	.	.	.	.	8a	.
.	.	.	.	.	.	8gJ	.
2C	et	.	.	.	.	2f	.
=147	=147	=147	=147	=147	=147	=147	=147
*	*	*	*	*	*	*	*Xedit
2BB	Fi-	1r	.	4G	-o	2g	-mul
*	*	*	*	*	*Xedit	*	*
.	.	.	.	2d	si-	.	.
2GG	.	.	.	.	.	2r	.
.	.	.	.	[4B	.	.	.
!!LO:LB:g=original
=148	=148	=148	=148	=148	=148	=148	=148
1AA	-li-	1r	.	4B]	.	1r	.
.	.	.	.	8AL	.	.	.
.	.	.	.	8GJ	.	.	.
.	.	.	.	2F	-mul	.	.
=149	=149	=149	=149	=149	=149	=149	=149
1GG	-o	2r	.	1G	ad-	4g	ad-
*	*	*	*	*	*	*col	*
.	.	.	.	.	.	4.dd	-o-
.	.	2G	Ad-	.	.	.	.
.	.	.	.	.	.	8cc	.
*	*	*	*	*	*	*Xcol	*
.	.	.	.	.	.	[4b	-ra-
=150	=150	=150	=150	=150	=150	=150	=150
2G	si-	2d	-o-	2B	-o-	4b]	.
.	.	.	.	.	.	8aL	.
.	.	.	.	.	.	8gJ	.
4D	-mul	2d	-ra-	2A	-ra-	2f	.
4F	ad-	.	.	.	.	.	.
=151	=151	=151	=151	=151	=151	=151	=151
4E	-o-	2e	-tur,	2G	-tur,	2g	-tur,
4.C	-ra-	.	.	.	.	.	.
.	.	2e	et	2r	.	2r	.
8D	-tur,	.	.	.	.	.	.
4E	et	.	.	.	.	.	.
=152	=152	=152	=152	=152	=152	=152	=152
8FL	con-	2d	con-	1r	.	1r	.
8E	.	.	.	.	.	.	.
8D	.	.	.	.	.	.	.
8CJ	.	.	.	.	.	.	.
4.BB	-glo-	2d	-glo-	.	.	.	.
8AA	.	.	.	.	.	.	.
=153	=153	=153	=153	=153	=153	=153	=153
2.C	-ri-	[1c	-ri-	1r	.	2.e	et
4D	.	.	.	.	.	4f	con-
!!LO:LB:g=original
=154	=154	=154	=154	=154	=154	=154	=154
4E	-fi-	1c]	.	1r	.	4g	-glo-
2F	-ca-	.	.	.	.	2a	-ri-
8EL	.	.	.	.	.	8gL	.
8DJ	.	.	.	.	.	8fJ	.
=155	=155	=155	=155	=155	=155	=155	=155
2C	-tur:	2c	-fi-	2G	Qui	2e	-fi-
2r	.	2c	-ca-	2A	lo-	4c	.
.	.	.	.	.	.	[4f	-ca-
=156	=156	=156	=156	=156	=156	=156	=156
1r	.	2A	.	4F	-cu-	8f]L	.
.	.	.	.	.	.	8eJ	.
.	.	.	.	4A	.	4c	.
.	.	2B	.	2G	-tus,	2d	.
=157	=157	=157	=157	=157	=157	=157	=157
2C	qui	1c	-tur.	2r	.	2c	-tur.
*	*	*	*	*	*edit	*	*
[2C	lo-	.	.	2G	qui	2r	.
=158	=158	=158	=158	=158	=158	=158	=158
4C]	.	1r	.	2.G	lo-	1r	.
4BB	.	.	.	.	.	.	.
2GG	-cu-	.	.	.	.	.	.
.	.	.	.	8FL	.	.	.
.	.	.	.	8EJ	.	.	.
=159	=159	=159	=159	=159	=159	=159	=159
2BB	.	1r	.	2D	-cu-	1r	.
2AA	-tus	.	.	2F	-tus	.	.
=160	=160	=160	=160	=160	=160	=160	=160
*	*	*	*	*	*Xedit	*	*
4GG	est	1r	.	2E	est	1r	.
2C	per	.	.	.	.	.	.
.	.	.	.	2D	per	.	.
4BB	.	.	.	.	.	.	.
!!LO:LB:g=original
=161	=161	=161	=161	=161	=161	=161	=161
4C	Pro-	1r	.	4C	.	1r	.
4E	.	.	.	4c	Pro-	.	.
4F	.	.	.	4d	.	.	.
[4G	-phe-	.	.	[4e	-phe-	.	.
=162	=162	=162	=162	=162	=162	=162	=162
4G]	.	1r	.	8e]L	.	1r	.
.	.	.	.	8dJ	.	.	.
4E	.	.	.	2c	-tas.	.	.
2D	-tas.	.	.	.	.	.	.
.	.	.	.	4B	.	.	.
=163	=163	=163	=163	=163	=163	=163	=163
1C	Et	1G	Et	1c	Et	1cc	Et
=164	=164	=164	=164	=164	=164	=164	=164
2C	u-	2G	u-	2e	u-	2cc	u-
2C	-nam	2G	-nam	2e	-nam	2cc	-nam-
=165	=165	=165	=165	=165	=165	=165	=165
2.GG	san-	2G	san-	2d	san-	2b	-san-
.	.	2G	-ctam	4d	-ctam	4b	-ctam
4GG	-ctam	.	.	4d	ca-	4b	ca-
=166	=166	=166	=166	=166	=166	=166	=166
2GG	ca-	2d	ca-	4B	-tho-	2b	-tho-
.	.	.	.	4G	.	.	.
2GG	-tho-	2d	-tho-	2G	-li-	2b	-li-
!!LO:PB:g=original
=167	=167	=167	=167	=167	=167	=167	=167
*col	*	*	*	*	*	*	*
4.D	-li-	2d	-li-	1A	-cam	2.a	-cam
8E	.	.	.	.	.	.	.
*Xcol	*	*	*	*	*	*	*
2F	-cam	2d	-cam	.	.	.	.
.	.	.	.	.	.	4a	et
=168	=168	=168	=168	=168	=168	=168	=168
2G	et	2d	et	2r	.	2b	a-
2D	a-	2d	apo-	2A	et	2a	-po-
=169	=169	=169	=169	=169	=169	=169	=169
2G	-po-	2.d	-sto-	2B	a-	4g	.
.	.	.	.	.	.	2dd	-sto-
4F	-sto-	.	.	2A	-po-	.	.
4D	-li-	4d	-li-	.	.	4dd	-li-
=170	=170	=170	=170	=170	=170	=170	=170
2G	-cam	1d	-cam	4G	.	4b	-cam
.	.	.	.	2.d	-sto-	8aL	.
.	.	.	.	.	.	8gJ	.
2D	Ec-	.	.	.	.	[2f	Ec-
=171	=171	=171	=171	=171	=171	=171	=171
2GG	-cle-	1d	Ec-	4B	.	4f]	.
.	.	.	.	8AL	.	4g	.
.	.	.	.	8GJ	.	.	.
2D	-si-	.	.	4.F	.	[2a	-cle-
.	.	.	.	8G	.	.	.
=172	=172	=172	=172	=172	=172	=172	=172
1AA	-am,	1c	-cle-	1A	-li-	4a]	.
.	.	.	.	.	.	4b	.
.	.	.	.	.	.	4cc	.
.	.	.	.	.	.	8bL	.
.	.	.	.	.	.	8aJ	.
!!LO:LB:g=original
=173	=173	=173	=173	=173	=173	=173	=173
[1E	Ec-	[1B	-si-	1E	-cam	2g	-si-
.	.	.	.	.	.	4a	.
.	.	.	.	.	.	[4b	.
=174	=174	=174	=174	=174	=174	=174	=174
2E]	.	1B]	.	2r	.	4b]	.
.	.	.	.	.	.	2a	.
2E	-cle-	.	.	2e	Ec-	.	.
.	.	.	.	.	.	4g#i	.
=175	=175	=175	=175	=175	=175	=175	=175
2.F	-si-	1A	-am.	2c	-cle-	1a	-am.
.	.	.	.	[2d	-si-	.	.
4E	.	.	.	.	.	.	.
=176	=176	=176	=176	=176	=176	=176	=176
2D	.	1r	.	4d]	.	1r	.
.	.	.	.	4c	.	.	.
4C	.	.	.	4A	.	.	.
[4D	.	.	.	[4B	.	.	.
=177	=177	=177	=177	=177	=177	=177	=177
4D]	.	1r	.	4B]	.	1r	.
8CL	.	.	.	8AL	.	.	.
8BBJ	.	.	.	8GJ	.	.	.
2AA	.	.	.	2F#i	.	.	.
=178	=178	=178	=178	=178	=178	=178	=178
1GG	-am.	1r	.	1G	-am.	2.b	Con-
.	.	.	.	.	.	[4b	-fi-
!!LO:LB:g=original
=179	=179	=179	=179	=179	=179	=179	=179
1r	.	1r	.	2.B	Con-	4b]	.
.	.	.	.	.	.	4g	-te-
.	.	.	.	.	.	2g	-or
.	.	.	.	[4B	-fi-	.	.
=180	=180	=180	=180	=180	=180	=180	=180
1r	.	1r	.	4B]	.	2.dd	u-
.	.	.	.	4G	-te-	.	.
.	.	.	.	2G	-or	.	.
.	.	.	.	.	.	4cc	-num
=181	=181	=181	=181	=181	=181	=181	=181
1r	.	1r	.	2.d	u-	2b	ba-
.	.	.	.	.	.	2a	-pti-
.	.	.	.	4c	-num	.	.
=182	=182	=182	=182	=182	=182	=182	=182
1r	.	1r	.	2B	ba-	2g	-sma
.	.	.	.	2A	-pti-	2f	in
=183	=183	=183	=183	=183	=183	=183	=183
1r	.	1r	.	2G	-sma	4g	re-
.	.	.	.	.	.	4b	-mis-
.	.	.	.	2F	in	4a	-si-
.	.	.	.	.	.	[4dd	-o-
=184	=184	=184	=184	=184	=184	=184	=184
1r	.	1r	.	4G	re-	4dd]	.
.	.	.	.	4B	-mis-	4g	-nem
.	.	.	.	4A	-si-	4a	pec-
.	.	.	.	[4d	-o-	4f	.
!!LO:LB:g=original
=185	=185	=185	=185	=185	=185	=185	=185
1r	.	1r	.	4d]	.	2e	-ca-
.	.	.	.	4G	-nem	.	.
.	.	.	.	4A	pec-	4f	.
.	.	.	.	[4B	-ca-	[4g	.
=186	=186	=186	=186	=186	=186	=186	=186
1r	.	1r	.	4B]	.	4g]	.
*	*	*	*	*	*	*col	*
.	.	.	.	4c	.	4.a	-to-
.	.	.	.	2A	-to-	.	.
.	.	.	.	.	.	8e	.
*	*	*	*	*	*	*Xcol	*
.	.	.	.	.	.	4f#i	.
=187	=187	=187	=187	=187	=187	=187	=187
2.G	Et	1r	.	2G	-rum.	2.g	-rum.
.	.	.	.	2r	.	.	.
4F	.	.	.	.	.	4a	Et
=188	=188	=188	=188	=188	=188	=188	=188
2G	ex-	1r	.	1r	.	2b	ex-
2A	-spe-	.	.	.	.	2cc	.
=189	=189	=189	=189	=189	=189	=189	=189
2F	-cto	1r	.	2r	.	2a	-spe-
*	*	*	*	*	*edit	*	*
4r	.	.	.	[2G	Et	2g	-cto
[4G	re-	.	.	.	.	.	.
=190	=190	=190	=190	=190	=190	=190	=190
4G]	.	1r	.	4G]	.	2r	.
4F	.	.	.	4A	.	.	.
2G	-sur-	.	.	2B	ex-	2dd	re-
!!LO:PB:g=original
=191	=191	=191	=191	=191	=191	=191	=191
2A	-re-	1r	.	2c	.	4cc	-sur-
.	.	.	.	.	.	4.a	-re-
2F	-cti-	.	.	2A	-spe-	.	.
.	.	.	.	.	.	8bL	.
.	.	.	.	.	.	8cc	.
.	.	.	.	.	.	8aJ	.
=192	=192	=192	=192	=192	=192	=192	=192
4G	-o-	1r	.	2G	-cto	4b	.
4B	.	.	.	.	.	8aL	-cti-
.	.	.	.	.	.	8gJ	.
2A	.	.	.	2r	.	2f	-o-
=193	=193	=193	=193	=193	=193	=193	=193
*	*	*	*	*	*	*col	*
4G	-nem	1r	.	1r	.	4.g	.
2GG	mor-	.	.	.	.	.	.
.	.	.	.	.	.	8f	.
*	*	*	*	*	*	*Xcol	*
.	.	.	.	.	.	4d	.
4AA	.	.	.	.	.	4c	.
=194	=194	=194	=194	=194	=194	=194	=194
*	*	*	*	*	*Xedit	*	*
2BB	-tu-	1r	.	2d	re-	2f	.
2C	-o-	.	.	4c	-sur-	2e	-nem
.	.	.	.	[4A	-re-	.	.
=195	=195	=195	=195	=195	=195	=195	=195
2AA	.	1r	.	8A]L	.	4r	.
.	.	.	.	8B	.	.	.
.	.	.	.	8c	.	4c	mo-
.	.	.	.	8AJ	.	.	.
2GG	-rum.	.	.	4B	.	4d	.
.	.	.	.	8AL	-cti-	4B	-tu-
.	.	.	.	8GJ	.	.	.
=196	=196	=196	=196	=196	=196	=196	=196
4r	.	1r	.	2F	-o-	2A	-o-
*	*Xedit	*	*	*	*	*	*
4D	Et	.	.	.	.	.	.
4E	.	.	.	2G	-nem	2G	-rum.
[4G	vi-	.	.	.	.	.	.
!!LO:LB:g=original
=197	=197	=197	=197	=197	=197	=197	=197
4G]	.	1r	.	2B	mor-	4r	.
4G	.	.	.	.	.	4g	Et
4F	.	.	.	4c	-tu-	4a	.
4D	.	.	.	[4d	-o-	[4b	vi-
=198	=198	=198	=198	=198	=198	=198	=198
4G	.	1r	.	8d]L	.	4b]	.
.	.	.	.	8cJ	.	.	.
4F	.	.	.	4A	.	2a	.
2G	-tam,	.	.	2B-i	.	.	.
.	.	.	.	.	.	4g	.
=199	=199	=199	=199	=199	=199	=199	=199
*	*edit	*	*	*	*	*	*
4D	et	1A	Et	2A	-rum.	2a	-tam
2F	vi-	.	.	.	.	.	.
.	.	.	.	2r	.	2cc	ven-
8EL	.	.	.	.	.	.	.
8DJ	.	.	.	.	.	.	.
=200	=200	=200	=200	=200	=200	=200	=200
*lig	*	*	*	*	*	*	*
2C	-tam	2c	vi-	1r	.	2cc	-tu-
2F	.	2c	-tam	.	.	2a	-ri
*Xlig	*	*	*	*	*	*	*
=201	=201	=201	=201	=201	=201	=201	=201
*	*Xedit	*	*	*	*	*	*
2F	ven-	2A	ven-	2.d	Et	2a	se-
2D	-tu-	2A	-tu-	.	.	[2dd	.
.	.	.	.	4e	.	.	.
=202	=202	=202	=202	=202	=202	=202	=202
2D	-ri	2.d	-ri	2f	vi-	4dd]	.
.	.	.	.	.	.	4cc	.
[2G	se-	.	.	2d	-tam	4b	.
.	.	4c	.	.	.	4a	.
=203	=203	=203	=203	=203	=203	=203	=203
2G]	.	4B	.	4r	.	2.g	.
.	.	4A	.	4d	ven-	.	.
2E	.	2G	se-	4e	-tu-	.	.
.	.	.	.	8BL	-ri	[4b	-cu
.	.	.	.	8cJ	.	.	.
!!LO:LB:g=original
=204	=204	=204	=204	=204	=204	=204	=204
1D	-cu-	1A	-cu-	4.d	se-	4b]	.
.	.	.	.	.	.	8aL	.
.	.	.	.	8c	.	8gJ	.
.	.	.	.	4A	.	2f	li.
.	.	.	.	[4d	-cu-	.	.
=205	=205	=205	=205	=205	=205	=205	=205
1GG	-li.	1G	-li.	8d]L	.	4r	.
.	.	.	.	8c	.	.	.
.	.	.	.	8B	.	4.g	A-
.	.	.	.	8AJ	.	.	.
.	.	.	.	2B	-li.	.	.
.	.	.	.	.	.	8aL	.
.	.	.	.	.	.	8b	.
.	.	.	.	.	.	8ccJ	.
=206	=206	=206	=206	=206	=206	=206	=206
2r	.	1r	.	4.G	A-	4.dd	.
.	.	.	.	8A	.	8cc	.
*col	*	*	*	*	*	*	*
4.G	A-	.	.	8BL	.	8bL	.
.	.	.	.	8cJ	.	8aJ	.
.	.	.	.	[4d	.	[4b	.
8F	.	.	.	.	.	.	.
*Xcol	*	*	*	*	*	*	*
=207	=207	=207	=207	=207	=207	=207	=207
4D	.	1r	.	4d]	.	4b]	.
*	*	*	*	*	*	*col	*
4C	.	.	.	4e	.	4.cc	.
2F	.	.	.	4c	.	.	.
.	.	.	.	.	.	8b	.
*	*	*	*	*	*	*Xcol	*
.	.	.	.	4d	.	4a	.
=208	=208	=208	=208	=208	=208	=208	=208
4G	.	1r	.	4B	.	4b	.
4C	.	.	.	4c	.	2g	.
2D	.	.	.	2A	.	.	.
.	.	.	.	.	.	4f#i	.
=209	=209	=209	=209	=209	=209	=209	=209
1GGl	-men.	1Gl	[A]-men.	1Gl	-men.	1gl	-men.
==	==	==	==	==	==	==	==
*-	*-	*-	*-	*-	*-	*-	*-
!!!system-decoration: [*]
!!!RDF**kern: j = editorial accidental, optional, paren up
!!!RDF**kern: i = editorial accidental
!!!RDF**kern: l = terminal breve
!!!PTL: Gaspar van Weerbeke: Collected Works. I. Masses, Part 1
!!!ISBN: 978-1-59551-515-5
!!!PPR: American Institute of Musicology
!!!PC#: Corpus Mensurabilis Musicae 106/I.1
!!!PDT: 2016
!!!PED: Pavanello, Agnese
!!!YEC: Copyright 2014, Pavanello, Agnese
!!!YEM: CC-BY-NC 4.0 (https://creativecommons.org/licenses/by-nc/4.0/legalcode)
!!!EED: Mair-Gruber, Roland
!!!EEV: 2021/10/30
!!!title: @{OPR} &mdash; @{OTL}
